X:1
T:[ID 4-31r]
T:[ID 4-31r]
T:Bezeichnung standardisiert: Contratanz de Erbprinz; Engl. Conter Tantz de Erb=Printz [mit Trio] In dieser Quelle auch als: Engl. Conter Tantz  Erb Printz.
T:Urheber unbekannt Datum in der hier transkribierten schriftlichen Quelle: 1767
C:Urheber unbekannt
C:Datum in der hier transkribierten schriftlichen Quelle: 1767
L:1/8
M:2/4
K:G
V:1 treble 
V:1
 d/ | d/c/B/A/ GB | B2 Ac | c2 Bd | d2 B2 | ecBA | A2 G2 | FDEC | D4 :: gdBG | gdBG | GABc | %12
 d2 g2 | B2 d2 | G2 A2 | BGAF | G4 :|[M:3/4]"^Trio" !fermata!D2 E2 | DGFE | D2 E2 | DGFE | D2 E2 | %22
 DEFG | ABcB | B2 A2 :: d2 d2 | dAFD | c2 c2 | cAFD | GABc | d2 g2 | B2 d2 | %32
 BGAF"^[Notat bricht ab]" | x6 | %34

